src/public/img/icons/folder.svg

<svg width="20" height="20" viewBox="0 0 20 20" fill="none" xmlns="http://www.w3.org/2000/svg">
<path d="M2 5C2 3.89543 2.89543 3 4 3H8.46482C8.79917 3 9.1114 3.1671 9.29687 3.4453L10.7031 5.5547C10.8886 5.8329 11.2008 6 11.5352 6H16C17.1046 6 18 6.89543 18 8V15C18 16.1046 17.1046 17 16 17H4C2.89543 17 2 16.1046 2 15V5Z" fill="#FA8F76"/>
</svg>

<svg xmlns="http://www.w3.org/2000/svg" width="20" height="20" fill="none">
  <path fill="#FA8F76" d="M2 5a2 2 0 0 1 2-2h4.465a1 1 0 0 1 .832.445l1.406 2.11a1 1 0 0 0 .832.445H16a2 2 0 0 1 2 2v7a2 2 0 0 1-2 2H4a2 2 0 0 1-2-2V5Z"/>
</svg>
